packages/ui-kit/src/icons/svg/tutorials.svg

<?xml version="1.0" encoding="UTF-8"?>
<svg width="80px" height="80px" viewBox="0 0 80 80" version="1.1" xmlns="http://www.w3.org/2000/svg" xmlns:xlink="http://www.w3.org/1999/xlink">
    <title>tutorials_80x80</title>
    <g id="Color-Scheme---Products-/-Solution" stroke="none" stroke-width="1" fill="none" fill-rule="evenodd">
        <g id="Icon-final" transform="translate(-570.000000, -17.000000)">
            <g id="tutorials_80x80" transform="translate(570.000000, 17.000000)">
                <path d="M25.2,3.15 L6.9,3.15 C5.40964406,3.15 4.15,4.40964406 4.15,5.9 L4.15,58.7 L4.15513145,58.8645934 C4.24362344,60.281935 5.46484243,61.45 6.9,61.45 L13.25,61.449 L13.25,75.5 L13.255444,75.6214089 C13.3489686,76.6530976 14.6255924,77.1421745 15.3838835,76.3838835 L30.317,61.449 L74.1,61.45 C75.5903559,61.45 76.85,60.1903559 76.85,58.7 L76.85,6 L76.8448686,5.8354066 C76.7563766,4.418065 75.5351576,3.25 74.1,3.25 L25.6865564,3.2482312 C25.5370085,3.18497775 25.372589,3.15 25.2,3.15 Z M6.9,5.65 L24.709,5.649 C24.8629915,5.71502225 25.027411,5.75 25.2,5.75 L74.1,5.75 C74.2096441,5.75 74.35,5.89035594 74.35,6 L74.35,58.7 C74.35,58.8096441 74.2096441,58.95 74.1,58.95 L29.8,58.95 L29.658955,58.9579786 C29.3793432,58.9897239 29.1170484,59.1151847 28.9161165,59.3161165 L15.75,72.482 L15.75,60.2 C15.75,59.5096441 15.1903559,58.95 14.5,58.95 L6.9,58.95 C6.79035594,58.95 6.65,58.8096441 6.65,58.7 L6.65,5.9 C6.65,5.79035594 6.79035594,5.65 6.9,5.65 Z" id="Path" fill="#044E7C" fill-rule="nonzero"></path>
                <path d="M34.1,39.1 L34.1,25.8 C34.1,25.1 34.9,24.6 35.5,24.9 L48.8,31.6 C49.5,32 49.5,33 48.8,33.3 L35.5,40 C34.9,40.2 34.1,39.8 34.1,39.1 Z" id="Path" fill="#078CDF"></path>
                <path d="M40.5,11.15 C28.7639491,11.15 19.25,20.6639491 19.25,32.4 C19.25,44.1360509 28.7639491,53.65 40.5,53.65 C52.2360509,53.65 61.75,44.1360509 61.75,32.4 C61.75,20.6639491 52.2360509,11.15 40.5,11.15 Z M40.5,13.65 C50.8553391,13.65 59.25,22.0446609 59.25,32.4 C59.25,42.7553391 50.8553391,51.15 40.5,51.15 C30.1446609,51.15 21.75,42.7553391 21.75,32.4 C21.75,22.0446609 30.1446609,13.65 40.5,13.65 Z" id="Oval" fill="#078CDF" fill-rule="nonzero"></path>
            </g>
        </g>
    </g>
</svg>

<svg viewBox="0 0 80 80" width="80px" height="80px" xmlns="http://www.w3.org/2000/svg">
  <g fill="none" fill-rule="evenodd">
    <path d="M25.2 3.15H6.9c-1.49 0-2.75 1.26-2.75 2.75v52.8l.005.165c.089 1.417 1.31 2.585 2.745 2.585l6.35-.001V75.5l.005.121c.094 1.032 1.37 1.521 2.129.763l14.933-14.935 43.783.001c1.49 0 2.75-1.26 2.75-2.75V6l-.005-.165c-.089-1.417-1.31-2.585-2.745-2.585l-48.413-.002a1.246 1.246 0 00-.487-.098zM6.9 5.65l17.809-.001c.154.066.318.101.491.101h48.9c.11 0 .25.14.25.25v52.7c0 .11-.14.25-.25.25H29.8l-.141.008a1.25 1.25 0 00-.743.358L15.75 72.482V60.2c0-.69-.56-1.25-1.25-1.25H6.9c-.11 0-.25-.14-.25-.25V5.9c0-.11.14-.25.25-.25z" fill="#044E7C" fill-rule="nonzero"/>
    <path d="M34.1 39.1V25.8c0-.7.8-1.2 1.4-.9l13.3 6.7c.7.4.7 1.4 0 1.7L35.5 40c-.6.2-1.4-.2-1.4-.9z" fill="#078CDF"/>
    <path d="M40.5 11.15c-11.736 0-21.25 9.514-21.25 21.25s9.514 21.25 21.25 21.25 21.25-9.514 21.25-21.25-9.514-21.25-21.25-21.25zm0 2.5c10.355 0 18.75 8.395 18.75 18.75S50.855 51.15 40.5 51.15 21.75 42.755 21.75 32.4s8.395-18.75 18.75-18.75z" fill="#078CDF" fill-rule="nonzero"/>
  </g>
</svg>
